!!!OTL: Als Gott den Adam hat erschaff'n, S. 43
!!!id: S0074
**kern
*clefG2
*k[]
*C:
{8g
8a
8g
=1
4.e
8cc
8b
8a
=2
4g}
=3
{8g
8g
8a
8e
=4
4f
8g
8a
8g
8f
=5
4e}
8r
=6
{8e
8e
8e
=7
4d
8g
8a
8g
8e
=8
4.cc}
=9
{8cc
8b
8a
=10
4.g
8g
16a
16g
8f
=11
4e}
8r
=12
{16e
16e
8d
8g
=13
4.g}
8r
=14
{8cc
8cc
=15
2dd
4b
=16
4cc}
8r
==
*-
!!!minrhy: 16
!!!meters: 3/4 ]  ZZ[6
!!!cut: Als Gott den Adam hat erschaff'n, S. 43
!!!reg: Luxemburg
!!!trd: Die Bauernhochzeit in fr&uuml;heren Zeiten
!!!rhy1: X_X_X_  X__.X_X_X_  X__   (x2)
!!!rhy2: X_X_X_X_  X__X_X_X_X_  X__0
!!!key: S0074  16  C 3/4 ]  ZZ[6
!!!mod: HEPTATONIK IONISCH]  AMBITUS[8
!!!kad: 53+135+1
!!!akz: 35_43_2+1_53_5_+2+1_
!!!fot: 'a__b__c__bs"d__e__
!!!for: 'a__b__bv_c__d__dw_
!!!fok: 'S__Sd_~a_\__/__-__
!! PHRAS[AUFTAKTIG]
!!!fkt: Hochzeitslied, religiöses Ehestandslied
!! SPEDENER, G:
!! PR[28] 2K[3] 2G[6] 3K[19] 3G[3] 4A[8] 4Ü[0] 5A[0] 6K[0] 6G[0]
!! 7K[0] 7G[0] 8A[0] MEHR[0] SI[39] ABS[36] SR[8] SP[31]
!! ST[8] 2k[3] 2g[6] 3k[17] 3g[3] 4d[3] 4ü[0] 5d[0] 6k[3] 6g[0]
!! 7k[0] 7g[0] 8d[0] mehr[0] si[33] dm[+6] sr[8] sp[25]
!! 1F[37] 2F[61] 3F[3] 4F[0] LF[0] 2P[0] 3P[0] 4P[0] TRI[0] DF[3] AB[38]
!! TF[0] U3K[0] U3[0] U4[0] U4Ü[0] U5[0] U6K[0] U6[0] U7K[0] U7[0]
!! N1[0] N2K[0] N2[3] N3K[0] N3[19] N4[8] N4Ü[0] N5[46] N6K[0] N6[8]
!!!n7k: 0] N7[5] O1[11] O2K[0] O2[0] O3K[0] O3[0] HÖ[0
!!!RNB: symbol: &uuml;  = u umlaut (UTF-8: Ã¼)
